X:1
T:The Last Rose Of Summer
T:Thomas Moore
T:Sir John Stevenson
T:Public Domain
T:Public Domain
T:Public Domain
Z:Public Domain
%%score 1 { 2 | 3 }
L:1/8
Q:1/4=72
M:3/4
K:D
V:1 treble nm="Voice" snm="Vo."
V:2 treble nm="Piano" snm="Pno."
V:3 bass 
V:1
!mf!"^Andante" D>E |: F2 (d>c) (B>A) | A2 F z (D>E) |!<(! (F A2)!<)! F!>(!{/F} (E>!>)!D) | D4 D>E | %5
w: 'Tis the|last rose * of *|sum- mer, Left *|bloom- * ing a- *|lone. All her|
w: |leave thee * thou *|lone one, To *|pine * on the *|stem. Since the|
w: |soon may * I *|fol- low When *|friend- * ships de- *|cay, And from|
 F2 (d>c) (B>A) | A2 F z (D>E) | (F A2 F){/F} E>D | (D2 D) z (A>F) | d3 c B>A | A2 F2 (A>F) | %11
w: love- ly * com- *|pan- ions are *|fad- * * ed and|gone. * No *|flow- er of her|kin- dred No *|
w: love- ly * are *|sleep- ing, Go *|sleep * * thou with|them. * Thus *|kind- * ly I|scat- ter Thy *|
w: love's shin- * ing *|cir- cle The *|gems * * drop a-|way! * When *|true * hearts lie|wither- ed And *|
 (d3 c) B^A | (B({cB^A)}B/c/ !fermata!d2) D>E | F2 (d>c){/c} (B>A) | A2 F z (D>E) | (F2 A>F) E>D | %16
w: rose- bud is *|nigh. * * * To re-|flect back * her *|blush- es. Or *|give * * sigh for|
w: leaves o'er the *|bed. * * * Where thy|mates of * the *|gar- den Lie *|scent- * * less and|
w: fond * ones are|flown * * * Oh! *|who would * in- *|hab- it This *|bleak * * world a|
!mf! D4 D>E :|3!mf! F4 D>E || F2 (d>c) (B>A) | A2 F z (D>E) | F A2 F E>D | D6 | z6 | z6 |] %24
w: sigh. I'll not||||||||
w: dead. So- *||||||||
w: |lone? Oh! *|who would * in- *|hab- it This *|bleak * * world a-|lone?|||
V:2
 (D>E |: F2) ([Fd]>c [GB]>A) | [FA]2 F z D>E | F A2 F [CE]>D | D4 D>E | F2 d>c B>A | %6
 ([FA]2 F) z (D>E) | ([DF] [DA]2 [DF]){/F} [CE]>D | D2 D z A>F | [Fd]3 c [GB]>A | A2 F2 A>F | %11
 [FBd]3 [EGc] [DFB][CF^A] | ([DFB]({cB^A)}B/c/ !fermata![FBd]2) D>E | [DF]2 ([Fd]>c){/c} ([GB]>A) | %14
 [FA]2 F z (D>E) | ([DF]2 [FA]>F) E>D | D4 D>E :|3 [DF]4 D>E || [DF]2 [Fd]>c [GB]>A | %19
 [FA]2 F z D>E | F A2 F E>D | D2!<(! [DF]2 [DFA]2 | [FAd]2 [Adf]2!<)! [dfa]2 | !fermata![dfad']6 |] %24
V:3
 z2 |: [D,F,A,]4 [D,G,B,]2 | [D,F,A,]4 z2 | [A,,A,]4 [A,,G,]2 | ([D,F,]2 D,,2) z2 | %5
 [D,F,A,]4 [D,G,B,]2 | [D,F,A,]4 z2 | [A,,A,]4 [A,,G,]2 | [D,F,]2 D,, z z2 | %9
 (3(D,F,A, (3D,F,B, (3D,F,A,) | (3(D,F,A, (3D,F,B, (3D,F,A,) | (3B,,D,F, B,,E, F,F,, | A,,2 z2 z2 | %13
 (3(D,F,A, (3D,F,B, (3D,F,A,) | (3D,F,A, (3DA,F, (3D,G,_B, | (3A,F,D, (3A,,D,F, [A,,C,G,]2 | %16
 [D,F,]2 D,,2 z2 :|3 (3(D,F,A, (3D,F,B, (3D,F,A,) || (3(D,F,A, (3D,F,B, (3D,F,A,) | %19
 (3(D,F,A, (3DA,F, (3D,G,_B,) | (3(A,F,D, (3A,,D,F,) [A,,G,]>[A,,F,] | F,2 A,2 F,2 | %22
 D,2 A,,2 F,,2 |!f! !fermata!D,,6 |] %24

